X:1
T:C Major James P. Carrell, 1821
T:Isaac Watts, 1709 (Hymn 54, Book 2)                        86. 86. (C. M.)
T:Elevation
T:Transcribed from Songs of Zion, 1821
%%score [ 1 2 3 4 ]
L:1/8
Q:1/4=100
M:6/8
K:C
V:1 treble nm="Tr." snm="Tr."
V:2 treble nm="C." snm="C."
V:3 treble-8 nm="T." snm="T."
V:4 bass nm="B." snm="B."
V:1
"^2.  In    dar–kest  shades  if    he   ap–pear    My  dawning  is      be–gun;      He  is  my soul's sweet morning star,   And  he   my    ri – sing""^1. My   God,  the  spring  of   all  my  joys,    The   life   of   my    de–lights,  The   glo–ry     of  my  brightest  days,  And  comfort  of     my" (c2 d) | %1
 e2 e ege | c2 c dcd | e2 e dcB | A3 A3 | c2 c ABc | dcd e2 e | g2 e g2 g | %8
"^1. nights, And comfort of my nights.  And comfort  of  my  nights.   The     glo –ry   of    my  brightest  days,   And  comfort   of    my   nights.""^2. sun,     And  he  my  ri – sing  sun,   And he   my   ri–sing   sun.      He  is  my  soul's  sweet morning  star,     And   he  my    ri – sing   sun." e3 e3 | %9
 c2 B AGA | d3 B3 | c2 A ABc | G3 (e2 d) | c2 c ABc | dcd e2 f | g2 e g2 g | e6 |] %17
V:2
"^3. The  opening  heav'ns  around  me  shine  With  beams  of  sacred bliss,  While  Jesus shows his heart is mine,  And whispers   I     am" G3 | %1
 E2 E AGA | E2 E DCD | E2 E G2 F | E3 E3 | E2 E E2 E | D2 F E2 A | G2 E G2 G | %8
"^3. his, And whis–pers  I  am  his,  And  whispers   I      am     his.    While   Je–sus shows his  heart is  mine,   And  whispers  I     am     his." A3 A3 | %9
 A2 B AGE | G3 F3 | E2 E E2 E | G3 A3 | A2 A AGE | D2 F E2 A | G2 E G2 G | E6 |] %17
V:3
"^4.  My  soul would leave this  heavy   clay     At   that  transporting  word,  Run  up  with  joy  the  shining  way  T'em–brace my dearest""^5. Fear–less   of   hell  and  ghastly  death,     I'd  break through every foe;   The wings of love and arms of  faith  Should bear me conqu'ror" (G2 A) | %1
 c2 A AGA | c2 A AGA | c2 c dcd | e3 c3 | e2 e edc | A2 A c2 A | G2 A GAB | %8
"^4. Lord, T'em–brace my dearest Lord,  T'em–brace my dearest Lord. Run  up  with  joy  the  shining   way   T'em–brace  my dearest  Lord.""^5. through, Should bear me conqueror through,                                  The wings of love and arms of faith  Should bear me conqueror through." c3 c3 | %9
 e2 e ede | g3"^Should bear me conqueror through," f3 | e2 e edc | d3 (c2 d) | e2 e edc | %14
 A2 A c2 A | G2 A GAB | c6 |] %17
V:4
 G,3 | C,2 C, C,2 C, | C,2 C, D,E,G, | A,2 C G,2 A, | E,3 E,3 | C,2 C, E,F,G, | A,G,A, E,2 E, | %7
 C,2 C, G,2 G, | C,3 C,3 | E,2 E, E,G,A, | G,3 B,3 | C2 A, A,G,E, | D,3 C,3 | E,2 E, E,F,G, | %14
 A,G,A, E,2 E, | C,2 C, G,2 G, | C,6 |] %17

